icons/file-2-line.svg

<svg xmlns="http://www.w3.org/2000/svg" width="24" height="24" fill="none"><g clip-path="url(#a)"><g><path fill="#121212" d="M2.99999 8L9.00299 2H19.998C20.55 2 21 2.455 21 2.992V21.008C20.9997 21.2712 20.895 21.5235 20.7088 21.7095C20.5226 21.8955 20.2702 22 20.007 22H3.99299C3.86167 21.9991 3.73181 21.9723 3.61084 21.9212C3.48986 21.8701 3.38014 21.7957 3.28793 21.7022C3.19572 21.6087 3.12283 21.4979 3.07343 21.3762C3.02402 21.2545 2.99907 21.1243 2.99999 20.993V8ZM9.99999 4V9H4.99999V20H19V4H9.99999Z"/></g></g><defs><clipPath id="a"><rect width="24" height="24" fill="white"/></clipPath></defs></svg>

<svg width="24" height="24" fill="none" xmlns="http://www.w3.org/2000/svg"><g clip-path="url(#a)"><path d="m3 8 6.003-6h10.995C20.55 2 21 2.455 21 2.992v18.016a.993.993 0 0 1-.993.992H3.993A1 1 0 0 1 3 20.993V8Zm7-4v5H5v11h14V4h-9Z" /></g><defs><clipPath id="a"><path fill="#fff" d="M0 0h24v24H0z"/></clipPath></defs></svg>
